!!!COM: Beethoven, Ludwig van
!!!CDT: 1770///-1827///
!!!OTL: Piano Sonata No. 19 in G minor
!!!ODT: ~1797///
!!!OPS: 49
!!!ONM: 1
!!!OMV: 1
!!!OMD: Andante
!!!AGN: Sonata
**kern	**kern	**dynam
*staff2	*staff1	*staff1/2
*>[A,A,B]	*>[A,A,B]	*>[A,A,B]
*>norep[A,B]	*>norep[A,B]	*>norep[A,B]
*>A	*>A	*>A
*clefF4	*clefG2	*clefG2
*k[b-e-]	*k[b-e-]	*k[b-e-]
*g:	*g:	*g:
*M2/4	*M2/4	*M2/4
*MM84	*MM84	*MM84
8r	(8d/	p
=1	=1	=1
8r	8b-/L	.
8B-\ (8d\L	8g/	.
8A\ 8c\	8f#/	.
8G\ 8B-\J)	8g/J)	.
=2	=2	=2
8F#\ (8A\L	2d/ 2cc/	mf
8D\ 8F#\	.	.
8En\ 8G\	.	.
8F#\ 8A\J)	.	.
=3	=3	=3
8G\ (8B-\L	(8b-/L	.
8B-\ 8d\	8g/	.
8A\ 8c\	8f#/	.
8G\ 8B-\J)	8g/J)	.
=4	=4	=4
(8C\L	2g\ 2ee-\	mf
8E-\	.	.
8G\	.	.
8c\J	.	.
=5	=5	=5
4B-\)	8dd'\	.
.	8ff#\L	.
8r	8gg\J	.
8B-\ 8d\	8dd\	.
=6	=6	=6
4F#\ 4d\	8cc\	.
.	(8gg#\L	.
8r	8aa\J)	.
8F#\ 8d\	(8cc\	.
=7	=7	=7
4G\ 4d\	8b-\L	.
.	8ggn\	.
4C\ 4c\	8a\	.
.	8ee-\J)	.
=8	=8	=8
[4D\ 4B-\	(8.g/L	.
.	32a/LL	.
.	32g/JJJ	.
8D\] 8A\	8f#/)	.
8r	(8d/	.
=9	=9	=9
8r	8b-/L	.
8B-\ (8d\L	8g/	.
8A\ 8c\	8f#/	.
8G\ 8B-\J)	8g/J)	.
=10	=10	=10
8F#\ (8A\L	2d/ 2cc/	mf
8D\ 8F#\	.	.
8En\ 8G\	.	.
8F#\ 8A\J)	.	.
=11	=11	=11
8G\ (8B-\L	(8b-/L	.
8B-\ 8d\	8g/	.
8A\ 8c\	8f#/	.
8G\ 8B-\J)	8g/J)	.
=12	=12	=12
*^	*	*
8C/L	(4.C\	4.ee-\	.
8E-/	.	.	.
8G/	.	.	.
8A/J	8C\	[8ee-\	.
=13	=13	=13	=13
4B-/)	4D\	16ee-\LL]	.
.	.	16dd\	.
.	.	16ff\	.
.	.	16een\JJ	.
8r	8r	16gg\LL	.
.	.	16ff\	.
8F/	8D\	16ee-\	.
.	.	16dd\JJ	.
=14	=14	=14	=14
.	.	(ccq/LL	.
.	.	ddq/	.
.	.	ee-q/JJ	.
8G/L	4E-\	(8dd\L)	p
8c/	.	8cc\J)	.
.	.	(bnq/LL	.
.	.	ccq/	.
.	.	(ddq/JJ)	.
8G/	4En\	8cc\L	.
8c/J	.	8b-\J)	.
*v	*v	*	*
=15	=15	=15
.	(aq/LL	.
.	b-q/	.
.	ccq/JJ	.
4F\ 4c\	(16b-/LL)	.
.	16a/	.
.	16g/	.
.	16f/JJ	.
4r	16en/LL	.
.	16f/	.
.	16g/	.
.	16f/JJ)	.
=16	=16	=16
16A\LL	(8ee-/L	.
16f\	.	.
16c\	8a/)	.
16f\JJ	.	.
16e-\LL	(8a'/	.
16f\	.	.
16c\	8a'/J)	.
16f\JJ	.	.
=17	=17	=17
16d\LL	(8.b-\L	.
16f\	.	.
16B-\	.	.
16f\JJ	16dd\Jk	.
16d\LL	8ff'\)	.
16f\	.	.
16B-\	8ff'\	.
16f\JJ	.	.
=18	=18	=18
16A\LL	(8eee-\L	.
16f\	.	.
16c\	8aa\)	.
16f\JJ	.	.
16e-\LL	(8aa'\	.
16f\	.	.
16c\	8aa'\J)	.
16f\JJ	.	.
=19	=19	=19
16d\LL	(8.bb-\L	.
16f\	.	.
16B-\	.	.
16f\JJ	16ddd\Jk)	.
16d\LL	8fff'\	.
16f\	.	.
16B-\	8f'/	.
16f\JJ	.	.
=20	=20	=20
16A\LL	(8ee-/L	.
16f\	.	.
16c\	8a/)	.
16f\JJ	.	.
16e-\LL	(8a'/	.
16f\	.	.
16c\	8a'/J)	.
16f\JJ	.	.
=21	=21	=21
16d\LL	(8.b-\L	.
16f\	.	.
16B-\	.	.
16f\JJ	16cc\Jk	.
16A-\LL	16dd\LL	.
16f\	16b-\	.
16B-\	16cc\	.
16f\JJ	16dd\JJ)	.
=22	=22	=22
16G\LL	(8.ee-\L	.
16e-\	.	.
16B-\	.	.
16e-\JJ	16ff\Jk	.
16E-\LL	16gg\LL	.
16e-\	16aa\	.
16B-\	16bb-\	.
16e-\JJ	16gg\JJ)	.
=23	=23	=23
16F\LL	(16een\LL	mf
16d\	16ff\	.
16B-\	16gg\	.
16d\JJ	16ff\JJ)	.
16F\LL	(16ff\LL	.
16e-\	16ee-\	.
16A\	16dd\	.
16e-\JJ	16cc\JJ)	.
=24	=24	=24
4B-\ 4d\	(16cc#\LL	.
.	16dd\	.
.	16ee-\	.
.	16dd\JJ	.
4r	16ff\LL	.
.	16ee-\	.
.	16dd\	.
.	16ccn\JJ)	.
=25	=25	=25
16d\LL	(8.b-\L	p
16f\	.	.
16B-\	.	.
16f\JJ	16cc\Jk	.
16A-\LL	16dd\LL	.
16f\	16b-\	.
16B-\	16cc\	.
16f\JJ	16dd\JJ)	.
=26	=26	=26
16G\LL	(16ee-\LL	.
16e-\	16ff\	.
16B-\	16gg\	.
16e-\JJ	16aan\JJ)	.
16E-\LL	(16ccc\LL	.
16e-\	16bb-\	.
16B-\	16aa\	.
16e-\JJ	16gg\JJ)	.
=27	=27	=27
16D\LL	(16gg\LL	f
16d\	16ff\	.
16B-\	16een\	.
16d\JJ	16ff\JJ	.
16E-\LL	16aa\LL	.
16c\	16gg\	.
16G\	16ff\	.
16c\JJ	16ee-\JJ)	.
=28	=28	=28
16F\LL	(16ee-\LL	.
16d\	16dd\	.
16B-\	16cc#\	.
16d\JJ	16dd\JJ	.
16F\LL	16ff\LL	.
16e-\	16ee-\	.
16A\	16dd\	.
16e-\JJ	16ccn\JJ)	.
=29	=29	=29
16B-\ 16d\LL	4b-\	.
16f\	.	.
16en\	.	.
16f\JJ	.	.
16g\LL	8r	.
16f\	.	.
16e-\	(16cc\LL	.
16d\JJ	16dd\JJ	.
=30	=30	=30
(16c\LL	8ee-\L	.
16f\	.	.
16e-\	8a\)	.
16f\JJ	.	.
16F\ 16c\LL	(8a'\	.
16f\	.	.
16e-\	8a'\J)	.
16f\JJ)	.	.
=31	=31	=31
16B-\ 16d\LL	4b-\	.
16f\	.	.
16en\	.	.
16f\JJ	.	.
16g\LL	8r	.
16f\	.	.
16e-\	(16cc\LL	.
16d\JJ	16dd\JJ	.
=32	=32	=32
(16c\LL	8ee-\L	.
16f\	.	.
16e-\	8a\)	.
16f\JJ	.	.
16F\ 16c\LL	(8a'\	.
16f\	.	.
16e-\	8a'\J)	.
16f\JJ)	.	.
=33	=33	=33
[4B-\ (4e-\	4a\ (4cc\	.
8B-\] 8d\)	8b-\)	.
=:|!	=:|!	=:|!
*>B	*>B	*>B
8BB-/	8B-/	f
=34	=34	=34
8F\L	(8f/L	.
8BB-\	8B-/)	.
8BB-'\	8B-'/	.
8BB-\J	8B-/J	.
=35	=35	=35
(8F\L	(8f/L	.
8AA-\)	8A-/)	.
8AA-'\	8A-'/	.
8AA-\J	8A-/J	.
=36	=36	=36
(8GG\L	(8G/L	.
8BB-\	8B-/	.
8E-\	8e-/	.
8G\J)	8g/J)	.
=37	=37	=37
*^	*^	*
(8A-/L	4AA-\	8f/L	4c\	p
8F/J	.	8a-/	.	.
8F/L)	4BB-\	8d/	4A-\	.
8D/J	.	8B-/J	.	.
*v	*v	*	*	*
*	*v	*v	*
=38	=38	=38
8EE-/ 8E-/	8G/ 8B-/ 8e-/	.
*clefG2	*	*
8e-/ 8g/L	8r	.
8e-/ 8g/J	16r	.
.	(16gg\LL	.
8r	16ff\	.
.	16ee-\JJ	.
=39	=39	=39
8r	8dd\)	.
8f/ 8a-/L	8r	.
8f/ 8a-/J	16r	.
.	(16aa-\LL	.
8r	16gg\	.
.	16ff\JJ	.
=40	=40	=40
8r	8ee-\)	.
8g/ 8b-/L	16r	.
.	(16eee-\	.
8g/ 8b-/	16ddd\LL	.
.	16eee-\	.
8g/ 8b-/J	16ddd\	.
.	16ccc\JJ	.
=41	=41	=41
4a-\ 4cc\	16bbn\LL	.
.	16ccc\	.
.	16bb-\	.
.	16aa-\JJ	.
4b-\ 4dd\	16gg\LL	.
.	16ff\	.
.	16ccc\	.
.	16bb-\JJ	.
=42	=42	=42
8r	8aa-\L	.
8e-/ 8b-/L	8gg\J)	.
8e-/ 8g/J	16r	.
.	(32gg\LLL	.
.	32ff\	.
8r	32aa-\	.
.	32gg\	.
.	32ff\	.
.	32ee-\JJJ)	.
=43	=43	=43
.	(ffq/	.
8r	(16ee-\LL)	.
.	16dd\J)	.
8f/ 8a-/L	8dd\J	.
8f/ 8a-/J	16r	.
.	(32aa-\LLL	.
.	32gg\	.
8r	32bb-\	.
.	32aa-\	.
.	32gg\	.
.	32ff\JJJ)	.
=44	=44	=44
.	(ggq/	.
8r	(16ff\LL)	.
.	16ee-\J	.
8g/ 8b-/L	8ee-\J)	.
8g/ 8b-/	16r	.
.	(32eee-\LLL	.
.	32ddd\	.
8g/ 8b-/J	32fff\	.
.	32eee-\	.
.	32ddd\	.
.	32ccc\JJJ)	.
=45	=45	=45
4a-/ 4cc/	(16bbn\LL	.
.	16ccc\	.
.	16bb-\	.
.	16aa-\JJ	.
4B-/ 4f/ 4a-/	16gg\LL	.
.	16ff\	.
.	16aa-\	.
.	16dd\JJ)	.
=46	=46	=46
16e-/ 16g/LL	4ee-\	.
16b-/	.	.
16an/	.	.
16b-/JJ	.	.
16cc/LL	8r	.
16b-/	.	.
16a-/	(16ff\LL	.
16g/JJ	16gg\JJ	.
=47	=47	=47
16f/LL	8aa-\L	.
16b-/	.	.
16a-/	8dd\)	.
16b-/JJ	.	.
16B-/ 16f/LL	(8dd'\	.
16b-/	.	.
16a-/	8dd'\J)	.
16b-/JJ	.	.
=48	=48	=48
16e-/LL	4ee-\	.
16g/	.	.
16f#/	.	.
16g/JJ	.	.
16a-/LL	8r	.
16g/	.	.
16fn/	(16dd\LL	.
16e-/JJ	16ee-\JJ	.
=49	=49	=49
16d/LL	8ff\L	.
16g/	.	.
16f/	8bn\)	.
16g/JJ	.	.
16G/ 16d/LL	(8b'\	.
16g/	.	.
16f/	8b'\J)	.
16g/JJ	.	.
*clefF4	*	*
=50	=50	=50
16c\LL	4cc\	.
16d\	.	.
16e-\	.	.
16d\JJ	.	.
16c\LL	8r	.
16B-\	.	.
16An\	16an\ (16aan\LL	.
16G\JJ	16b-\ 16bb-\JJ	.
=51	=51	=51
16F#\LL	8cc\ 8ccc\L	f
16d\	.	.
16A\	8f#\ 8ff#\)	.
16d\JJ	.	.
16c\LL	8f#'\ 8ff#'\	.
16d\	.	.
16A\	8f#'\ 8ff#'\J	.
16d\JJ	.	.
=52	=52	=52
16B-\LL	4g\ (4gg\	.
16d\	.	.
16G\	.	.
16d\JJ	.	.
16F#\LL	4a\ 4aa\)	.
16d\	.	.
16A\	.	.
16d\JJ	.	.
=53	=53	=53
16G\LL	8cc\ (8ccc\L	p
16d\	.	.
16B-\	8b-\ 8bb-\	.
16d\JJ	.	.
16E-\LL	8a\ 8aa\	.
16c#\	.	.
16G\	8g\ 8gg\J	.
16c#\JJ	.	.
=54	=54	=54
16D\LL	8f#\ 8ff#\)	.
16d\	.	.
16F#\	8r	.
16d\JJ	.	.
16A\LL	16r	.
16d\	(16dd\LL	.
16F#\	16cc#\	.
16d\JJ	16dd\JJ)	.
=55	=55	=55
16D\LL	8b-\ 8gg\	.
16d\	.	.
16G\	8r	.
16d\JJ	.	.
16B-\LL	16r	.
16d\	(16dd\LL	.
16G\	16cc#\	.
16d\JJ	16dd\JJ)	.
=56	=56	=56
16D\LL	8a/	.
16d\	.	.
16F#\	8r	.
16d\JJ	.	.
16A\LL	16r	.
16d\	(16dd\LL	.
16F#\	16cc#\	.
16d\JJ	16dd\JJ)	.
=57	=57	=57
16D\LL	8b-\ 8gg\	.
16d\	.	.
16G\	8r	.
16d\JJ	.	.
16B-\LL	16r	.
16d\	(16dd\LL	.
16G\	16cc#\	.
16d\JJ	16dd\JJ)	.
=58	=58	=58
16D\LL	(4a/	.
16d\	.	.
16F#\	.	.
16d\JJ	.	.
16D\LL	4bn/	.
16d\	.	.
16G#\	.	.
16d\JJ	.	.
=59	=59	=59
16D\LL	4.cc\	.
16d\	.	.
16G#\	.	.
16d\JJ	.	.
16A\LL	.	.
16d\	.	.
16Gn\	8b-\)	.
16d\JJ	.	.
=60	=60	=60
16D\LL	(8a\L	.
16d\	.	.
16F#\	8aa\J	.
16d\JJ	.	.
16D\LL	8bn\L	.
16d\	.	.
16G#\	8bbn\J	.
16d\JJ	.	.
=61	=61	=61
16D\LL	8cc\	.
16d\	.	.
16G#\	4ccc\	.
16d\JJ	.	.
16A\LL	.	.
16d\	.	.
16Gn\	8b-\)	.
16d\JJ	.	.
=62	=62	=62
16D\LL	(8a\L	.
16d\	.	.
16F#\	8aa\J	.
16d\JJ	.	.
16D\LL	8bn\L	.
16d\	.	.
16G#\	8bbn\J	.
16d\JJ	.	.
=63	=63	=63
4D\ 4A\ 4d\	8cc\L	.
.	8ccc\J	.
4r	8cc#\L	.
.	8ccc#\J)	.
=64	=64	=64
8r	(8dd/L	p
8B-\ (8d\L	8g/	.
8A\ 8c\	8f#/	.
8G\ 8B-\J)	8g/J)	.
=65	=65	=65
8F#\ (8A\L	2d/ 2cc/	.
8D\ 8F#\	.	.
8En\ 8G\	.	.
8F#\ 8A\J)	.	.
=66	=66	=66
8G\ (8B-\L	(8b-/L	p
8B-\ 8d\	8g/	.
8A\ 8c\	8f#/	.
8G\ 8B-\J)	8g/J)	.
=67	=67	=67
(8C\L	2g\ 2ee-\	.
8E-\	.	.
8G\	.	.
8c\J	.	.
=68	=68	=68
4B-\)	8dd'\	.
.	8ff#\L	.
8r	8gg\J	.
8B-\ 8d\	8dd\	.
=69	=69	=69
4F#\ 4d\	8cc\	.
.	(8gg#\L	.
8r	8aa\J)	.
8F#\ 8d\	(8cc\	.
=70	=70	=70
4G\ 4d\	8b-\L	.
.	8ggn\	.
4C\ 4c\	8a\	.
.	8ee-\J)	.
=71	=71	=71
[4D\ (4B-\	(8.g/L	.
.	32a/LL	.
.	32g/JJJ	.
8D\] 8A\)	8f#'/)	.
8d\	8r	.
*clefG2	*	*
=72	=72	=72
(8b-/L	16r	.
.	(16dd\LL	.
8g/	16bb-\	.
.	16dd\JJ	.
8f#/	16cc\ 16aa\LL	.
.	16dd\	.
8g/J)	16b-\ 16gg\	.
.	16dd\JJ)	.
=73	=73	=73
2d/ 2cc/	(16ff#\LL	.
.	16dd\	.
.	16cc#\	.
.	16dd\JJ	.
.	16een\LL	.
.	16ff#\	.
.	16gg\	.
.	16aa\JJ)	.
=74	=74	=74
(8b-/L	(16bb-\LL	.
.	16dd\	.
8g/	16bb-\ 16ddd\	.
.	16dd\JJ	.
8f#/	16aa\ 16ccc\LL	.
.	16dd\	.
8g/J)	16gg\ 16bb-\	.
.	16dd\JJ)	.
=75	=75	=75
2fn\ 2ee-\	(16aa\LL	.
.	16ff\	.
.	16een\	.
.	16ff\JJ	.
.	16gg\LL	.
.	16aa\	.
.	16bb-\	.
.	16ccc\JJ)	.
=76	=76	=76
8b-\ 8dd\	(16ddd\LL	.
.	16ff\	.
(8b-/L	16ddd\ 16fff\	.
.	16ff\JJ	.
8a/	16ccc\ 16eee-\LL	.
.	16ff\	.
8b-/J)	16bb-\ 16ddd\	.
.	16ff\JJ)	.
=77	=77	=77
(8f#/L	16aa\ (16ccc\LL	.
.	16dd\	.
8g/J)	16gg\ 16bb-\	.
.	16dd\JJ	.
(8d/L	16ff#\ 16aa\LL	.
.	16cc\	.
8e-/J)	16gg\	.
.	16b-\JJ)	.
*clefF4	*	*
=78	=78	=78
(4.c\	16r	.
.	(16a\LL	f
.	16ee-\	.
.	16dd\JJ	.
.	16cc\LL	.
.	16b-\	.
8c#\	16a\	.
.	16g\JJ)	.
=79	=79	=79
8d\)	16f#/LL	p
.	16g/	.
8r	16a/	.
.	16g#/JJ	.
4r	16a/LL	.
.	16bn/	.
.	16cc/	.
.	16b/JJ	.
=80	=80	=80
16F#\LL	(8cc/L	.
16d\	.	.
16A\	8f#/)	.
16d\JJ	.	.
16c\LL	(8f#'/	.
16d\	.	.
16A\	8f#'/J)	.
16d\JJ	.	.
=81	=81	=81
16B-\LL	(8.g\L	.
16d\	.	.
16G\	.	.
16d\JJ	16b-\Jk)	.
16B-\LL	8dd'\	.
16d\	.	.
16G\	(8dd\	.
16d\JJ	.	.
=82	=82	=82
16F#\LL	8ccc\L	.
16d\	.	.
16A\	8ff#\J)	.
16d\JJ	.	.
16c\LL	8ff#'\L	.
16d\	.	.
16A\	8ff#'\J	.
16d\JJ	.	.
=83	=83	=83
16B-\LL	(8.gg\L	.
16d\	.	.
16G\	.	.
16d\JJ	16bb-'\Jk)	.
16B-\LL	8ddd'\	.
16d\	.	.
16G\	(8d/	.
16d\JJ	.	.
=84	=84	=84
16F#\LL	8cc/L	.
16d\	.	.
16A\	8f#/)	.
16d\JJ	.	.
16c\LL	(8f#'/	.
16d\	.	.
16A\	8f#'/J)	.
16d\JJ	.	.
=85	=85	=85
16B-\LL	(8.g/L	.
16d\	.	.
16G\	.	.
16d\JJ	16a/Jk	.
16Fn\LL	16bn/LL	.
16d\	16g/	.
16G\	16a/	.
16d\JJ	16b/JJ)	.
=86	=86	=86
16E-\LL	(8.cc\L	.
16c\	.	.
16G\	.	.
16c\JJ	16dd\Jk	.
16C\LL	16ee-\LL	.
16G\	16ff\	.
16E-\	16gg\	.
16G\JJ	16ee-\JJ)	.
=87	=87	=87
16BB-\LL	(8dd\L	.
16G\	.	.
16D\	16ee-\L	.
16G\JJ	16dd\JJ	.
16C\LL	16ff\LL	.
16A\	16ee-\	.
16E-\	16dd\	.
16A\JJ	16cc\JJ)	.
=88	=88	=88
16D\LL	(8.b-\L	.
16B-\	.	.
16G\	.	.
16B-\JJ	16cc\Jk	.
16D\LL	16dd\LL	.
16c\	16cc\	.
16F#\	16b-\	.
16c\JJ	16a\JJ)	.
=89	=89	=89
16G\LL	(8.g/L	p
16d\	.	.
16B-\	.	.
16d\JJ	16a/Jk	.
16Fn\LL	16bn/LL	.
16d\	16g/	.
16G\	16a/	.
16d\JJ	16b/JJ)	.
=90	=90	=90
16E-\LL	(8.cc\L	.
16c\	.	.
16G\	.	.
16c\JJ	16dd\Jk	.
16C\LL	16ee-\LL	.
16G\	16een\	.
16E-\	16ff\	.
16G\JJ	16ff#\JJ)	.
=91	=91	=91
16C#\LL	[4gg\	f
16B-\	.	.
16En\	.	.
16B-\JJ	.	.
16G\LL	8.gg\L]	.
16B-\	.	.
16E\	.	.
16B-\JJ	16aa\Jk	.
=92	=92	=92
16C#\LL	4bb-\	.
16B-\	.	.
16En\	.	.
16B-\JJ	.	.
16G\LL	(4c#/	mf
16B-\	.	.
16E\	.	.
16B-\JJ	.	.
=93	=93	=93
16D\LL	8d'/)	.
16d\	.	.
16G\	(4dd\	p
16d\JJ	.	.
16B-\LL	.	.
16d\	.	.
16G\	16cc#\LL	.
16d\JJ	16dd\JJ	.
=94	=94	=94
16D\LL	16ee-\LL	.
16d\	16dd\	.
16A\	16ccn\	.
16d\JJ	16b-\JJ	.
16c\LL	16a\LL	.
16d\	16b-\	.
16A\	16cc\	.
16d\JJ	16f#\JJ)	.
=95	=95	=95
16D\LL	(8g/	.
16d\	.	.
16G\	4gg\)	.
16d\JJ	.	.
16B-\LL	.	.
16d\	.	.
16G\	(16cc#\LL	.
16d\JJ	16dd\JJ	.
=96	=96	=96
16D\LL	16ee-\LL	.
16d\	16dd\	.
16A\	16ccn\	.
16d\JJ	16b-\JJ	.
16c\LL	16a\LL	.
16d\	16b-\	.
16A\	16cc\	.
16d\JJ	16f#\JJ)	.
=97	=97	=97
4G\	8g/L	pp
.	8G/ 8B-/ 8d/	.
8r	8G/ 8B-/ 8d/	.
8DD\	8G/ 8B-/ 8d/J	.
=98	=98	=98
*^	*	*
8A/ 8c/ 8d/L	(8C\L	2r	.
8A/ 8c/ 8d/	8FF#\)	.	.
8A/ 8c/ 8d/	(8FF#'\	.	.
8A/ 8c/ 8d/J	8FF#'\J)	.	.
=99	=99	=99	=99
8G/ 8B-/ 8d/L	4GG\	2r	.
8G/ 8B-/ 8d/	.	.	.
8G/ 8B-/ 8d/	8r	.	.
8G/ 8B-/ 8d/J	8DD\	.	.
=100	=100	=100	=100
8A/ 8c/ 8d/L	(8C\L	2r	.
8A/ 8c/ 8d/	8FF#\)	.	.
8A/ 8c/ 8d/	(8FF#'\	.	.
8A/ 8c/ 8d/J	8FF#'\J)	.	.
=101	=101	=101	=101
8G/ 8B-/ 8e-/L	4GG\	2r	.
8G/ 8B-/ 8d/	.	.	.
8G/ 8B-/ 8d/	8r	.	.
8G/ 8B-/ 8d/J	8DD\	.	.
*v	*v	*	*
=102	=102	=102
*^	*	*
*	*^	*	*
8A/ 8c/ 8d/L	2r	(8C\L	2r	.
8A/ 8c/ 8d/	.	8FF#\)	.	.
8A/ 8c/ 8d/	.	(8FF#'\	.	.
8A/ 8c/ 8d/J	.	8FF#'\J)	.	.
*	*v	*v	*	*
=103	=103	=103	=103
8B-/ (8d/L	2GG\	2r	p
8G/	.	.	.
8Bn/ 8f/	.	.	.
8G/J	.	.	.
=104	=104	=104	=104
8c/ 8e-/L	2GGG\	2r	.
8G/	.	.	.
8E-/ 8c/	.	.	.
8F#/J)	.	.	.
=105	=105	=105	=105
8D/ (8Bn/L	2GG\	2r	.
8G/	.	.	.
8Fn/ 8d/	.	.	.
8G/J	.	.	.
=106	=106	=106	=106
8E-/ 8c/L	2GGG\	2r	.
8G/	.	.	.
8C/ 8F#/	.	.	.
8E-/J)	.	.	.
=107	=107	=107	=107
8BBn/ (8G/L	2GGG\ 2GG\	2r	.
8D/	.	.	.
8C/ 8F#/	.	.	.
8E-/J	.	.	.
=108	=108	=108	=108
8BBn/ 8G/L	2GGG\ 2GG\	2r	.
8D/	.	.	.
8C/ 8F#/	.	.	.
8E-/J)	.	.	.
=109	=109	=109	=109
8BBn/ (8G/L	4GGG\ 4GG\	2r	.
8D/	.	.	.
8BB/ 8G/	4GGG\ 4GG\	.	.
8D/J)	.	.	.
=110	=110	=110	=110
4BBn/ 4G/	4GGG\ 4GG\	4r	.
8r	8r	8r	.
*v	*v	*	*
==	==	==
*-	*-	*-
!!!ENC: Craig Stuart Sapp
!!!END: 2004/09/02/
!!!ONB: Not proof-read yet
